svgs/sharp-light/square-a-lock.svg

<svg xmlns="http://www.w3.org/2000/svg" viewBox="0 0 576 512"><!--! Font Awesome Pro 6.6.0 by @fontawesome - https://fontawesome.com License - https://fontawesome.com/license (Commercial License) Copyright 2024 Fonticons, Inc. --><path d="M32 64l384 0 0 106.8c9.9-4.7 20.7-8 32-9.6L448 64l0-32-32 0L32 32 0 32 0 64 0 448l0 32 32 0 288 0 0-32L32 448 32 64zm206.5 73.2l-4.3-9.2-20.4 0-4.3 9.2L94 384l35.3 0 30-64 129.5 0 30 64 1.3 0 0-72.7L238.5 137.2zM224 181.7L273.8 288l-99.5 0L224 181.7zM464 224c26.5 0 48 21.5 48 48l0 48-96 0 0-48c0-26.5 21.5-48 48-48zm-80 48l0 48-32 0 0 32 0 128 0 32 32 0 160 0 32 0 0-32 0-128 0-32-32 0 0-48c0-44.2-35.8-80-80-80s-80 35.8-80 80zm0 80l160 0 0 128-160 0 0-128z"/></svg>

<svg xmlns="http://www.w3.org/2000/svg" viewBox="0 0 576 512"><!--! Font Awesome Pro 6.4.2 by @fontawesome - https://fontawesome.com License - https://fontawesome.com/license (Commercial License) Copyright 2023 Fonticons, Inc. --><path d="M32 64H416V170.8c9.9-4.7 20.7-8 32-9.6V64 32H416 32 0V64 448v32H32 320l0-32H32V64zm206.5 73.2l-4.3-9.2H213.8l-4.3 9.2L94 384h35.3l30-64H288.7l30 64H320l0-72.7L238.5 137.2zM224 181.7L273.8 288H174.2L224 181.7zM464 224c26.5 0 48 21.5 48 48v48H416V272c0-26.5 21.5-48 48-48zm-80 48v48H352v32V480v32h32H544h32V480 352 320H544V272c0-44.2-35.8-80-80-80s-80 35.8-80 80zm0 80H544V480H384V352z"/></svg>
